openmetadata-ui/src/main/resources/ui/src/assets/svg/plus-primary.svg

<svg width="16" height="16" viewBox="0 0 16 16" fill="none" xmlns="http://www.w3.org/2000/svg">
<path d="M11.9175 8.65222H8.65222V11.9175C8.65222 12.2767 8.35835 12.5706 7.99916 12.5706C7.63998 12.5706 7.3461 12.2767 7.3461 11.9175V8.65222H4.0808C3.72161 8.65222 3.42773 8.35835 3.42773 7.99916C3.42773 7.63998 3.72161 7.3461 4.0808 7.3461H7.3461V4.0808C7.3461 3.72161 7.63998 3.42773 7.99916 3.42773C8.35835 3.42773 8.65222 3.72161 8.65222 4.0808V7.3461H11.9175C12.2767 7.3461 12.5706 7.63998 12.5706 7.99916C12.5706 8.35835 12.2767 8.65222 11.9175 8.65222Z" fill="#7147E8"/>
</svg>

<svg xmlns="http://www.w3.org/2000/svg" width="16" height="16" fill="none"><path fill="#7147E8" d="M11.918 8.652H8.652v3.266c0 .359-.294.653-.653.653a.655.655 0 0 1-.653-.653V8.652H4.081A.655.655 0 0 1 3.428 8c0-.359.294-.653.653-.653h3.265V4.081c0-.36.294-.653.653-.653.36 0 .653.294.653.653v3.265h3.266c.359 0 .653.294.653.653 0 .36-.294.653-.653.653Z"/></svg>
